X:3013
T:Cotillion, The
T:Chain Cotillion
R:Rigaudon
C:Trad.
O:France
Z:Paul Hardy's Session Tunebook 2015 (see www.paulhardy.net). Creative Commons cc by-nc-sa licenced.
M:2/2
L:1/8
Q:1/2=80
K:G
D2|"G"G4 "D"d4|"G"B2 AB G2 AB|"C"c2 B2 "G"A2 G2|"Bm"F2 EF "G"D3 D|"Em"E4 "Bm"F4|"G"GFGA .G2 d2|"C"cBAG "D7"BAGF|"G"G6:|
|:d2|"D"dedc "G".B2 d2|"D"dedc "G".B2 d2|"Em"e2 d2 "D"e2 f2|"G"g4 "Bm"d2 ef|"Em"g2 fe "G"d2 cB|"C"e2 dc "G"B2 AB|
"C"c2 B2 "G"A2 G2|"D"F2 EF "G"D3 D|"Em"E4 "D"F4|"G"GFGA G2 d2|"C"cBAG "D"BAGF|"G"G6:|
|:d2|"G"gfga g2 d2|g6 d2|"D"Bc .d2 Bc .d2|"G"BcBA G2 d2|"G"gfga g2 d2|g6 d2|"D"Bc .d2 Bc .d2|"G"B6:|
|:B2|"G"B2 .A2 "Am"A2 Bc|"G"d6 g2|.d2 .d2d2 cB|"D"AGAB A2 GA|"G"BcBA GABc|"D"dcde "G"d2 g2|B2 g2 "D"GABA|"G"G6:|

